!!!OTL: GAR FROEHLICH TRET ICH IN DIE WELT
!!!ARE: Europa, Mitteleuropa, Deutschland
!!!SCT: F0742
!!!YEM: Copyright 1995, estate of Helmut Schaffrath.
**kern
*ICvox
*Ivox
*M2/4
*k[]
*C:
{8G
=1
8e
8e
8c
8c
=2
8f
8f
8d}
{8d
=3
8g
8c
8f
8e
=4
4d
8r}
{8d
=5
8.d
16d
8d
16e
16f#
=6
8.g
16g
16f#
16e}
{16d
16c
=7
8.B
16B
8.c
16A
=8
4G
8r}
{8f
=9
8e
8d
8c
8e
=10
8.d
16e
8d}
{8f
=11
8e
8d
8c
8e
=12
4d
8r}
{8G
=13
8e
8e
8c
8c
=14
8f
8f
8d}
{8d
=15
16g
16a
16f
16d
8c
16e
16d
=16
4c
8r}
==
!!!AGN: Geselligkeits - Lied
!!!ONB: ESAC (Essen Associative Code) Database: FINK
!!!AMT: simple duple
!!!AIN: vox
!!!EED: Helmut Schaffrath
!!!EEV: 1.0
*-
